icons/trash-filled.svg

<svg xmlns="http://www.w3.org/2000/svg" width="24" height="24" viewBox="0 0 24 24">
    <path fill="#3A3A47" fill-rule="evenodd" d="M19 10v10c0 1.333-.667 2-2 2H7c-1.336 0-2.003-.667-2-2l-.002-10H19zm-9 3c-.619.009-.95.297-.995.864L9 14v4c0 .667.333 1 1 1 .619 0 .95-.287.995-.862L11 18v-4c0-.676-.333-1.01-1-1zm4 0c-.619.009-.95.297-.995.864L13 14v4c0 .667.333 1 1 1 .619 0 .95-.287.995-.862L15 18v-4c0-.676-.333-1.01-1-1zM11 2h2c1.333 0 2 .667 2 2h3c1.333 0 2 .667 2 2v2l-.001.033L20 8H4V6c0-1.333.666-2 1.999-2H9c0-1.333.667-2 2-2z"/>
</svg>

<svg width="24" height="24" viewBox="0 0 24 24" fill="none" xmlns="http://www.w3.org/2000/svg">
<path fill-rule="evenodd" clip-rule="evenodd" d="M9 4C9 2.667 9.667 2 11 2H13C14.333 2 15 2.667 15 4H18C19.333 4 20 4.667 20 6V8H4V6C4 4.667 4.666 4 5.999 4H9ZM19 10V20C19 21.333 18.333 22 17 22H7C5.664 22 4.997 21.333 5 20V10H19ZM9 14V18C9 18.667 9.333 19 10 19C10.667 19 11 18.667 11 18V14C11 13.324 10.667 12.99 10 13C9.333 13.01 9 13.343 9 14ZM13 14V18C13 18.667 13.333 19 14 19C14.667 19 15 18.667 15 18V14C15 13.324 14.667 12.99 14 13C13.333 13.01 13 13.343 13 14Z" fill="#3A3A47"/>
</svg>
